packages/tokens/icons/productBadgingStar/size24Px.svg

<svg viewBox="0 0 24 24" fill="none" xmlns="http://www.w3.org/2000/svg" width="1em" height="1em"><path d="M9 19.5H18.5C19.6046 19.5 20.5 18.6046 20.5 17.5V11.5" stroke="currentColor" stroke-linecap="round"/><path d="M7.5 13.5H13.5M7.5 10.5L14.5 10.5" stroke="currentColor" stroke-linecap="round"/><path d="M11.4333 3.56641L6.16667 3.56641C5.24619 3.56641 4.5 4.3126 4.5 5.23307L4.5 14.8997C4.5 15.8202 5.24619 16.5664 6.16667 16.5664H15.8333C16.7538 16.5664 17.5 15.8202 17.5 14.8997V10.4997" stroke="currentColor" stroke-linecap="round" stroke-linejoin="round"/><path d="M15.4057 5.63304L14.3465 4.61045C14.2008 4.46976 14.2741 4.22325 14.4731 4.18508L16.0291 3.88647C16.1088 3.87117 16.1762 3.81809 16.2097 3.74413L16.7723 2.50254C16.861 2.30678 17.139 2.30678 17.2277 2.50254L17.7903 3.74413C17.8238 3.81809 17.8912 3.87117 17.9709 3.88647L19.5269 4.18508C19.7259 4.22325 19.7992 4.46976 19.6535 4.61045L18.5943 5.63304C18.5353 5.69009 18.508 5.77251 18.5213 5.85354L18.7912 7.49151C18.8252 7.69751 18.6066 7.8519 18.4238 7.75105L17.1208 7.03215C17.0456 6.99067 16.9544 6.99067 16.8792 7.03215L15.5762 7.75105C15.3934 7.8519 15.1748 7.69751 15.2088 7.49151L15.4787 5.85354C15.492 5.77251 15.4647 5.69009 15.4057 5.63304Z" stroke="currentColor"/></svg>

<svg xmlns="http://www.w3.org/2000/svg" fill="none" viewBox="0 0 24 24" width="1em" height="1em"><path stroke="currentColor" stroke-linecap="round" d="M9 19.5h9.5a2 2 0 0 0 2-2v-6m-13 2h6m-6-3h7"/><path stroke="currentColor" stroke-linecap="round" stroke-linejoin="round" d="M11.433 3.566H6.167c-.92 0-1.667.747-1.667 1.667V14.9c0 .92.746 1.666 1.667 1.666h9.666c.92 0 1.667-.746 1.667-1.666v-4.4"/><path stroke="currentColor" d="m15.406 5.633-1.06-1.023a.25.25 0 0 1 .127-.425l1.556-.299a.25.25 0 0 0 .18-.142l.563-1.241a.25.25 0 0 1 .456 0l.562 1.241a.25.25 0 0 0 .18.142l1.557.3a.25.25 0 0 1 .127.424l-1.06 1.023a.25.25 0 0 0-.073.22l.27 1.639a.25.25 0 0 1-.367.26l-1.303-.72a.25.25 0 0 0-.242 0l-1.303.72a.25.25 0 0 1-.367-.26l.27-1.638a.25.25 0 0 0-.073-.221Z"/></svg>
